packages/icons/src/components/Logo/assets/dark/argo.svg

<svg width="20" height="20" viewBox="0 0 20 20" fill="none" xmlns="http://www.w3.org/2000/svg">
<g>
<path opacity="0.2" d="M10 13.1406C13.1368 13.1406 15.6797 10.5977 15.6797 7.46094C15.6797 4.32413 13.1368 1.78125 10 1.78125C6.86319 1.78125 4.32031 4.32413 4.32031 7.46094C4.32031 10.5977 6.86319 13.1406 10 13.1406Z" fill="url(#paint0_linear_374_267)"/>
<path opacity="0.14" fill-rule="evenodd" clip-rule="evenodd" d="M10 14.5547C13.918 14.5547 17.0898 11.3789 17.0898 7.46484C17.0898 3.54688 13.918 0.371094 10 0.371094C6.08203 0.371094 2.91016 3.54688 2.91016 7.46094C2.91016 11.3789 6.08203 14.5547 10 14.5547ZM10 13.1445C13.1367 13.1445 15.6797 10.6016 15.6797 7.46484C15.6797 4.32812 13.1367 1.78516 10 1.78516C6.86328 1.78516 4.32031 4.32812 4.32031 7.46484C4.32031 10.6016 6.86328 13.1445 10 13.1445Z" fill="#5E6294"/>
<path d="M6.75391 10.4375C5.97656 10.1016 5.43359 9.32812 5.43359 8.42578C5.43359 7.58203 5.91016 6.85156 6.60547 6.48438C6.55859 4.5625 8.10547 2.96875 10.0391 2.96875C11.9727 2.96875 13.5195 4.5625 13.4688 6.48828C14.1641 6.85547 14.6406 7.58594 14.6406 8.42969C14.6406 9.33203 14.0977 10.1055 13.3203 10.4414L13.1953 13.8125C13.2305 14.6836 13.4961 14.7578 14.4844 15.0312C14.5781 15.0586 14.6836 15.0859 14.793 15.1172C13.9766 15.3047 13.4648 15.3281 13.1445 15.2305L13.0859 16.7852C12.957 18.2578 12.9688 18.2578 13.9609 18.5195C14.0977 18.5547 14.25 18.5938 14.4219 18.6445C12.2852 19.1328 12.2578 18.1641 12.2305 17.2891C12.2266 17.1133 12.2187 16.9414 12.1992 16.7891H12.1211C12.1172 16.8477 12.1133 16.9063 12.1055 16.9609C12.0039 18.1836 11.9727 18.6055 12.1641 18.793C12.2656 18.8906 12.4258 18.9219 12.6758 18.9727C12.9336 19.0234 13.2852 19.0938 13.7539 19.2773C11.2344 19.6289 11.2344 18.8281 11.2383 17.4648C11.2383 17.2539 11.2383 17.0273 11.2305 16.7891H11.1563C11.0391 19.418 11.1758 19.4492 12.0703 19.668C12.3125 19.7266 12.6133 19.8008 12.9766 19.9453C10.4063 20.2305 10.3047 19.5 10.1484 18.375C10.1211 18.1758 10.0898 17.9648 10.0469 17.7422C10 17.9609 9.97266 18.1758 9.94531 18.375C9.78516 19.5 9.68359 20.2305 7.11719 19.9453C7.48047 19.8008 7.78125 19.7305 8.02344 19.668C8.91797 19.4492 9.05469 19.4141 8.9375 16.7891H8.86328C8.85547 17.0273 8.85547 17.25 8.85547 17.4648C8.85938 18.8281 8.85938 19.6289 6.33984 19.2773C6.80859 19.0938 7.16016 19.0234 7.41797 18.9727C7.66406 18.9219 7.82813 18.8906 7.92969 18.793C8.12109 18.6094 8.08594 18.1875 7.98828 16.9609C7.98438 16.9063 7.98047 16.8477 7.97266 16.7891H7.89453C7.87109 16.9453 7.86719 17.1172 7.86328 17.2891C7.83984 18.1641 7.80859 19.1328 5.67188 18.6445C5.84375 18.5938 6 18.5547 6.13281 18.5195C7.125 18.2617 7.14062 18.2578 7.00781 16.7852L6.94922 15.2305C6.625 15.3281 6.11328 15.3008 5.30078 15.1172C5.41016 15.0859 5.51172 15.0586 5.60938 15.0312C6.59766 14.7578 6.86328 14.6875 6.89844 13.8125L6.75391 10.4375Z" fill="#EF7B4D"/>
<path d="M7.51172 6.83203C8.41406 6.83203 9.14453 7.5625 9.14453 8.46484C9.14453 9.36719 8.41406 10.0977 7.51172 10.0977C6.60938 10.0977 5.87891 9.36719 5.87891 8.46484C5.87891 7.5625 6.60938 6.83203 7.51172 6.83203ZM12.3398 6.83203C13.2422 6.83203 13.9727 7.5625 13.9727 8.46484C13.9727 9.36719 13.2422 10.0977 12.3398 10.0977C11.4375 10.0977 10.707 9.36719 10.707 8.46484C10.707 7.5625 11.4375 6.83203 12.3398 6.83203ZM8.77344 11.5117C8.77344 11.5117 9.36719 12.1055 10.0352 12.1055C10.7031 12.1055 11.2969 11.5117 11.2969 11.5117V12.2539C11.2969 12.9492 10.7305 13.5156 10.0352 13.5156C9.33984 13.5156 8.77344 12.9492 8.77344 12.2539V11.5117Z" fill="#FEFEFE"/>
<path d="M7.47656 7.64844C7.78516 7.64844 8.03516 7.89844 8.03516 8.20703C8.03516 8.51563 7.78516 8.76562 7.47656 8.76562C7.16797 8.76562 6.91797 8.51563 6.91797 8.20703C6.91797 7.89844 7.16797 7.64844 7.47656 7.64844ZM12.3008 7.64844C12.6094 7.64844 12.8594 7.89844 12.8594 8.20703C12.8594 8.51563 12.6094 8.76562 12.3008 8.76562C11.9922 8.76562 11.7422 8.51563 11.7422 8.20703C11.7422 7.89844 11.9961 7.64844 12.3008 7.64844ZM8.77344 12.1055C8.77344 12.1055 9.36719 12.6992 10.0352 12.6992C10.7031 12.6992 11.2969 12.1055 11.2969 12.1055V12.2539C11.2969 12.9492 10.7305 13.5156 10.0352 13.5156C9.33984 13.5156 8.77344 12.9492 8.77344 12.2539V12.1055Z" fill="black"/>
<path opacity="0.16" d="M5.28514 11.2383C5.21873 11.2383 5.15232 11.207 5.10545 11.1484C4.30857 10.0898 3.88279 8.82419 3.87889 7.49216C3.87107 5.34373 4.95701 3.38669 6.78514 2.25388C6.89061 2.18748 7.02732 2.22263 7.09373 2.32419C7.16014 2.42966 7.12498 2.56638 7.02342 2.63279C5.32811 3.68357 4.32029 5.49998 4.32811 7.49216C4.33201 8.72654 4.72654 9.89841 5.46873 10.8828C5.54295 10.9804 5.52342 11.1211 5.42576 11.1953C5.37889 11.2226 5.33201 11.2383 5.28514 11.2383Z" fill="#5E6294"/>
<path opacity="0.45" d="M7.66016 2.22656C7.82412 2.22656 7.95703 2.09365 7.95703 1.92969C7.95703 1.76573 7.82412 1.63281 7.66016 1.63281C7.4962 1.63281 7.36328 1.76573 7.36328 1.92969C7.36328 2.09365 7.4962 2.22656 7.66016 2.22656Z" fill="#5E6294"/>
<path d="M2.53908 5.79297H2.6133C2.77736 5.79297 2.91018 5.92578 2.91018 6.08984V8.91016C2.91018 9.07422 2.77736 9.20703 2.6133 9.20703H2.53908C2.37502 9.20703 2.24221 9.07422 2.24221 8.91016V6.08984C2.2383 5.92578 2.37502 5.79297 2.53908 5.79297ZM17.3867 5.79297H17.461C17.625 5.79297 17.7578 5.92578 17.7578 6.08984V8.91016C17.7578 9.07422 17.625 9.20703 17.461 9.20703H17.3867C17.2227 9.20703 17.0899 9.07422 17.0899 8.91016V6.08984C17.0899 5.92578 17.2227 5.79297 17.3867 5.79297Z" fill="#5E6294"/>
<path fill-rule="evenodd" clip-rule="evenodd" d="M10 14.9258C14.1211 14.9258 17.4609 11.5859 17.4609 7.46484C17.4609 3.33984 14.1211 0 10 0C5.87891 0 2.53906 3.33984 2.53906 7.46094C2.53906 11.5859 5.87891 14.9258 10 14.9258ZM10 14.5547C13.918 14.5547 17.0898 11.3789 17.0898 7.46484C17.0898 3.54688 13.918 0.371094 10 0.371094C6.08203 0.371094 2.91016 3.54688 2.91016 7.46094C2.91016 11.3789 6.08203 14.5547 10 14.5547Z" fill="#5E6294" fill-opacity="0.2"/>
<path d="M9.25392 4.64854C9.1797 4.9962 8.87502 5.23057 8.57814 5.16417C8.27736 5.10167 8.08595 4.82042 8.16017 4.47276C8.23439 4.1251 8.69142 3.75401 8.9922 3.81651C9.28908 3.87901 9.32814 4.29698 9.25392 4.64854Z" fill="#F77F4F"/>
</g>
<defs>
<linearGradient id="paint0_linear_374_267" x1="8.4759" y1="2.2257" x2="11.7373" y2="13.4329" gradientUnits="userSpaceOnUse">
<stop stop-color="#5E6294"/>
<stop offset="1" stop-color="#878BB2"/>
</linearGradient>
<clipPath id="clip0_374_267">
<rect width="20" height="20" fill="white"/>
</clipPath>
</defs>
</svg>

<svg xmlns="http://www.w3.org/2000/svg" width="20" height="20" fill="none" viewBox="0 0 20 20">
    <path fill="url(#a)" d="M10 13.14a5.68 5.68 0 1 0 0-11.359 5.68 5.68 0 0 0 0 11.36" opacity=".2"/>
    <path fill="#5e6294" fill-rule="evenodd" d="M10 14.555a7.09 7.09 0 0 0 7.09-7.09A7.09 7.09 0 1 0 2.91 7.46 7.09 7.09 0 0 0 10 14.555m0-1.41a5.68 5.68 0 1 0 0-11.36 5.68 5.68 0 0 0 0 11.36" clip-rule="evenodd" opacity=".14"/>
    <path fill="#ef7b4d" d="M6.754 10.438a2.194 2.194 0 0 1-.148-3.953 3.434 3.434 0 0 1 3.433-3.516 3.43 3.43 0 0 1 3.43 3.52 2.194 2.194 0 0 1-.149 3.952l-.125 3.371c.035.872.301.946 1.29 1.22.093.027.199.054.308.085-.816.188-1.328.211-1.648.113l-.06 1.555c-.128 1.473-.116 1.473.876 1.735q.204.05.46.125c-2.136.488-2.163-.48-2.19-1.356a5 5 0 0 0-.032-.5h-.078q-.005.089-.016.172c-.101 1.223-.132 1.645.06 1.832.1.098.26.129.51.18a6 6 0 0 1 1.079.304c-2.52.352-2.52-.449-2.516-1.812q.002-.318-.008-.676h-.074c-.117 2.629.02 2.66.914 2.879.242.059.543.133.907.277-2.57.285-2.672-.445-2.829-1.57q-.039-.3-.101-.633c-.047.219-.074.434-.102.633-.16 1.125-.261 1.855-2.828 1.57.363-.144.664-.215.906-.277.895-.219 1.032-.254.915-2.879h-.075q-.01.355-.008.676c.004 1.363.004 2.164-2.515 1.812a6 6 0 0 1 1.078-.304c.246-.051.41-.082.512-.18.191-.184.156-.605.058-1.832q-.005-.083-.015-.172h-.078c-.024.156-.028.328-.032.5-.023.875-.054 1.844-2.191 1.355.172-.05.328-.09.46-.124.993-.258 1.009-.262.876-1.735l-.059-1.555c-.324.098-.836.07-1.648-.113l.308-.086c.989-.273 1.254-.344 1.29-1.219z"/>
    <path fill="#fefefe" d="M7.512 6.832a1.632 1.632 0 1 1 .001 3.264 1.632 1.632 0 0 1-.001-3.264m4.828 0a1.632 1.632 0 1 1 .001 3.264 1.632 1.632 0 0 1-.001-3.264m-3.567 4.68s.594.593 1.262.593 1.262-.593 1.262-.593v.742c0 .695-.567 1.262-1.262 1.262a1.264 1.264 0 0 1-1.262-1.262z"/>
    <path fill="#000" d="M7.477 7.648a.558.558 0 1 1 0 1.117.558.558 0 0 1 0-1.117m4.824 0a.558.558 0 1 1 0 1.117.558.558 0 0 1 0-1.117m-3.528 4.458s.594.593 1.262.593 1.262-.594 1.262-.594v.149c0 .695-.567 1.262-1.262 1.262a1.264 1.264 0 0 1-1.262-1.262z"/>
    <path fill="#5e6294" d="M5.285 11.238a.23.23 0 0 1-.18-.09A6.07 6.07 0 0 1 3.88 7.492a6.1 6.1 0 0 1 2.906-5.238.226.226 0 0 1 .309.07.226.226 0 0 1-.07.309 5.65 5.65 0 0 0-2.696 4.86 5.62 5.62 0 0 0 1.14 3.39.224.224 0 0 1-.042.312.3.3 0 0 1-.14.043" opacity=".16"/>
    <path fill="#5e6294" d="M7.66 2.227a.297.297 0 1 0 0-.594.297.297 0 0 0 0 .594" opacity=".45"/>
    <path fill="#5e6294" d="M2.54 5.793h.073c.164 0 .297.133.297.297v2.82a.297.297 0 0 1-.297.297H2.54a.297.297 0 0 1-.297-.297V6.09a.294.294 0 0 1 .297-.297m14.847 0h.074c.164 0 .297.133.297.297v2.82a.297.297 0 0 1-.297.297h-.074a.297.297 0 0 1-.297-.297V6.09c0-.164.133-.297.297-.297"/>
    <path fill="#5e6294" fill-opacity=".2" fill-rule="evenodd" d="M10 14.926a7.46 7.46 0 0 0 7.46-7.461A7.461 7.461 0 1 0 2.54 7.46 7.46 7.46 0 0 0 10 14.926m0-.371a7.09 7.09 0 0 0 7.09-7.09A7.09 7.09 0 1 0 2.91 7.46 7.09 7.09 0 0 0 10 14.555" clip-rule="evenodd"/>
    <path fill="#f77f4f" d="M9.254 4.649c-.074.347-.379.582-.676.515-.3-.062-.492-.344-.418-.691.074-.348.531-.719.832-.656.297.062.336.48.262.832"/>
    <defs>
        <linearGradient id="a" x1="8.476" x2="11.737" y1="2.226" y2="13.433" gradientUnits="userSpaceOnUse">
            <stop stop-color="#5e6294"/>
            <stop offset="1" stop-color="#878bb2"/>
        </linearGradient>
    </defs>
</svg>
